humanity-icon-theme/Humanity/status/16/user-away.svg

<?xml version="1.0" encoding="UTF-8" standalone="no"?>
<!-- Created with Inkscape (http://www.inkscape.org/) -->

<svg
   xmlns:svg="http://www.w3.org/2000/svg"
   xmlns="http://www.w3.org/2000/svg"
   xmlns:xlink="http://www.w3.org/1999/xlink"
   version="1.1"
   width="16"
   height="16"
   id="svg2816"
   style="display:inline">
  <defs
     id="defs2818">
    <linearGradient
       id="linearGradient3681">
      <stop
         id="stop3683"
         style="stop-color:#ffffff;stop-opacity:1"
         offset="0" />
      <stop
         id="stop3685"
         style="stop-color:#ffffff;stop-opacity:0"
         offset="1" />
    </linearGradient>
    <radialGradient
       cx="5"
       cy="3.2"
       r="8"
       fx="5"
       fy="3.2"
       id="radialGradient3618"
       xlink:href="#linearGradient4168"
       gradientUnits="userSpaceOnUse"
       gradientTransform="matrix(1.375,-1.245058e-8,1.1318709e-8,1.25,-1.875,-0.9999999)" />
    <linearGradient
       x1="5"
       y1="-2"
       x2="9"
       y2="20"
       id="linearGradient3687"
       xlink:href="#linearGradient3681"
       gradientUnits="userSpaceOnUse" />
    <linearGradient
       id="linearGradient4168">
      <stop
         id="stop4170"
         style="stop-color:#fadd9e;stop-opacity:1"
         offset="0" />
      <stop
         id="stop3599"
         style="stop-color:#e2af40;stop-opacity:1"
         offset="0.5" />
      <stop
         id="stop4172"
         style="stop-color:#a7770d;stop-opacity:1"
         offset="1" />
    </linearGradient>
  </defs>
  <path
     d="m 4.5,11.5 c -1.5277778,-0.03125 -4,-1 -4,-4 l 0,-3 c 0,-3 2.5,-3.9166667 4,-4 l 7,0 c 1.5,0.1145829 4,1 4,4 l 0,3 c 0,3 -1.513889,4 -3,4 -2.396168,-0.01417 -0.516156,2.724315 0,4 l -0.666667,0 -4.333333,-4 -3,0 z"
     id="path2819"
     style="fill:url(#radialGradient3618);fill-opacity:1;stroke:#bf8407;stroke-opacity:1" />
  <path
     d="M 4.5625,1.46875 C 3.9779722,1.5012238 3.1410127,1.7262692 2.53125,2.1875 1.9214873,2.6487308 1.46875,3.2671695 1.46875,4.5 l 0,3 c 0,1.235799 0.4269982,1.8798635 1.03125,2.34375 0.5959111,0.457483 1.4295699,0.670499 2,0.6875 l 0.03125,0 2.96875,0 a 0.96190641,0.96190641 0 0 1 0.65625,0.25 l 2.25,2.0625 c -0.07837,-0.430007 -0.112978,-0.890546 0.15625,-1.375 0.35897,-0.645939 1.156009,-0.942121 1.9375,-0.9375 0.527322,0 0.978108,-0.157481 1.34375,-0.5625 0.365642,-0.4050192 0.6875,-1.130536 0.6875,-2.46875 l 0,-3 C 14.53125,3.2671695 14.11029,2.6461958 13.5,2.1875 12.88971,1.7288042 12.040362,1.5148018 11.4375,1.46875 l -6.875,0 z"
     id="path3616"
     style="opacity:0.41999996;fill:none;stroke:url(#linearGradient3687);stroke-opacity:1" />
  <rect
     width="8"
     height="3"
     rx="1.5789839e-15"
     ry="0"
     x="3.5"
     y="4.5"
     id="rect2827"
     style="fill:#bf8407;fill-opacity:1;stroke:none;display:inline" />
  <path
     d="M 8.5,2 13.025547,6 8.5,10 8.5,2 z"
     id="path2829"
     style="fill:#bf8407;fill-opacity:1;stroke:none;display:inline" />
  <rect
     width="7"
     height="2"
     rx="1.3816109e-15"
     ry="0"
     x="4"
     y="5"
     id="rect2832"
     style="fill:#ffffff;fill-opacity:1;stroke:none;display:inline" />
  <path
     d="M 9,3 12,6 9,9 9,3 z"
     id="rect3852"
     style="fill:#ffffff;fill-opacity:1;stroke:none;display:inline" />
</svg>

<?xml version="1.0" encoding="UTF-8" standalone="no"?>
<!-- Created with Inkscape (http://www.inkscape.org/) -->
<svg id="svg2816" xmlns="http://www.w3.org/2000/svg" height="16" width="16" version="1.1" xmlns:xlink="http://www.w3.org/1999/xlink">
 <defs id="defs2818">
  <radialGradient id="radialGradient3618" gradientUnits="userSpaceOnUse" cy="3.2" cx="5" gradientTransform="matrix(1.375 -1.2451e-8 1.1319e-8 1.25 -1.875 -1)" r="8">
   <stop id="stop4170" style="stop-color:#fadd9e" offset="0"/>
   <stop id="stop3599" style="stop-color:#e2af40" offset=".5"/>
   <stop id="stop4172" style="stop-color:#a7770d" offset="1"/>
  </radialGradient>
  <linearGradient id="linearGradient3687" y2="20" gradientUnits="userSpaceOnUse" x2="9" y1="-2" x1="5">
   <stop id="stop3683" style="stop-color:#fff" offset="0"/>
   <stop id="stop3685" style="stop-color:#fff;stop-opacity:0" offset="1"/>
  </linearGradient>
 </defs>
 <path id="path2819" style="stroke:#bf8407;fill:url(#radialGradient3618)" d="m4.5 11.5c-1.5278-0.03125-4-1-4-4v-3c0-3 2.5-3.9167 4-4h7c1.5 0.11458 4 1 4 4v3c0 3-1.5139 4-3 4-2.3962-0.01417-0.51616 2.7243 0 4h-0.66667l-4.3333-4h-3z"/>
 <path id="path3616" style="opacity:0.42;stroke:url(#linearGradient3687);fill:none" d="m4.5625 1.4688c-0.5845 0.0324-1.4215 0.2575-2.0313 0.7187-0.6097 0.4612-1.0624 1.0797-1.0624 2.3125v3c0 1.2358 0.427 1.8799 1.0312 2.3438 0.59591 0.45748 1.4296 0.6705 2 0.6875h0.03125 2.9688a0.96191 0.96191 0 0 1 0.65625 0.25l2.25 2.0625c-0.07837-0.43001-0.11298-0.89055 0.15625-1.375 0.35897-0.64594 1.156-0.94212 1.9375-0.9375 0.52732 0 0.97811-0.15748 1.3438-0.5625 0.36564-0.40502 0.6875-1.1305 0.6875-2.4688v-3c0-1.233-0.421-1.854-1.031-2.3127s-1.46-0.6727-2.062-0.7187h-6.875z"/>
 <rect id="rect2827" style="fill:#bf8407" rx="1.579e-15" ry="0" height="3" width="8" y="4.5" x="3.5"/>
 <path id="path2829" style="fill:#bf8407" d="m8.5 2 4.526 4-4.526 4v-8z"/>
 <rect id="rect2832" style="fill:#fff" rx="1.3816e-15" ry="0" height="2" width="7" y="5" x="4"/>
 <path id="rect3852" style="fill:#fff" d="m9 3 3 3-3 3v-6z"/>
</svg>
